X:97
T:Bonsadalians, The
M:2/4
L:1/8
B:Thompson's Compleat Collection of 200 Favourite Country Dances, vol. 1 (London, 1757)
Z:Transcribed and edited by Fynnian Titford-Mock, 2007
Z:abc's:AK/Fiddler's Companion
K:G
G2 Bd|G2 Bd|gedc|BG dB|G2 Bd|G2 Bd|ged^c|d2 D2:|
|:g2 gb|g2 gb|edef|gd BG|g2 gb|g2 gb|edef|g2 G2:|

